public/images/icons/web.svg

<svg width="60" height="60" fill="none" xmlns="http://www.w3.org/2000/svg"><rect width="60" height="60" rx="19" fill="url(#paint0_radial)"/><path opacity=".5" fill-rule="evenodd" clip-rule="evenodd" d="M46.263 13.7365c-8.9819-8.98199-23.5446-8.98199-32.5265 0-8.98199 8.9819-8.98199 23.5446 0 32.5265 5.8103 5.8103 14.279 8.0795 22.216 5.9528 7.937-2.1267 14.1366-8.3263 16.2633-16.2633 2.1267-7.937-.1425-16.4057-5.9528-22.216zm-15.1642 7.3109c2.5364-.0553 5.0627-.3388 7.5482-.8473.7227 2.851 1.1207 5.7746 1.1862 8.7151h-8.715l-.0194-7.8678zm0-11.7072v9.5236c2.3227-.0581 4.636-.3173 6.914-.7746-1.5881-4.7255-4.0961-8.0518-6.914-8.749zm-2.1981 0v9.5236c-2.3224-.0552-4.6357-.3111-6.914-.765 1.5978-4.74 4.0961-8.0614 6.914-8.7586zm0 19.5605v-7.8533c-2.5288-.0615-5.0469-.3499-7.524-.8618-.7267 2.8504-1.1263 5.7743-1.1911 8.7151h8.7151zm-10.9374 0H9.22884c.2195-4.1575 1.68556-8.1526 4.20746-11.4652 1.8315.9634 3.7659 1.717 5.7664 2.2466-.7625 3.0157-1.1784 6.1086-1.2394 9.2186zm1.2394 11.3973c-.7608-3.0094-1.1766-6.0957-1.2394-9.1992H9.22884c.2147 4.1659 1.68106 8.1701 4.20746 11.4894 1.8299-.9777 3.7643-1.746 5.7664-2.2902zm.9635-9.1992h8.7151v7.8532c-2.5364.0553-5.0627.3389-7.5482.8473-.7151-2.847-1.1065-5.7656-1.1669-8.7005zm8.7345 19.5605v-9.5237c-2.3227.0582-4.636.3174-6.914.7747 1.5881 4.7255 4.0961 8.0518 6.914 8.749zm2.1981-.0146v-9.5091c2.3224.0552 4.6357.3112 6.914.765-1.5978 4.7401-4.0961 8.0615-6.914 8.7587v-.0146zm0-19.5459v7.8532c2.5287.0616 5.0469.35 7.524.8619.7267-2.8504 1.1263-5.7743 1.1911-8.7151h-8.7151zm10.9374 0h8.7151c-.2091 4.1638-1.6686 8.1678-4.1881 11.4894-1.8305-.9717-3.7649-1.7335-5.7665-2.2708.7626-3.0157 1.1785-6.1086 1.2395-9.2186zm-1.2346-11.3974c.7568 3.0101 1.1709 6.0961 1.2346 9.1993h8.7344c-.2233-4.1508-1.6892-8.1386-4.2074-11.4458-1.8306.9617-3.7632 1.7153-5.7616 2.2465zm4.2994-3.9847c-1.576.7883-3.2294 1.4114-4.9337 1.8592-.3987-1.2177-.8841-2.4054-1.4525-3.5538-.6814-1.3983-1.5442-2.7006-2.5661-3.8733 3.4124 1.0571 6.4953 2.9746 8.9523 5.5679zm-23.8163-1.6946c.6814-1.3983 1.5442-2.7006 2.5661-3.8733-3.413 1.059-6.497 2.9761-8.9572 5.5679 1.5788.7859 3.2335 1.4089 4.9386 1.8592.3965-1.2185.882-2.4063 1.4525-3.5538zm-6.3862 30.2607c1.576-.7884 3.2294-1.4114 4.9337-1.8593.3987 1.2178.8841 2.4054 1.4525 3.5538.6844 1.3989 1.5505 2.7013 2.5758 3.8734-3.4159-1.0557-6.5023-2.9732-8.962-5.5679zm23.8163 1.6945c-.6814 1.3983-1.5442 2.7007-2.5661 3.8734 3.4129-1.059 6.497-2.9761 8.9571-5.5679-1.5787-.7859-3.2334-1.4089-4.9385-1.8593-.3966 1.2186-.882 2.4064-1.4525 3.5538z" fill="url(#paint1_linear)"/><path d="M10.0239 38h4.6563l1.6875-6.4375h.125L18.1802 38h4.6562l3-12h-4.3125l-1.3125 7.25h-.0937L18.5239 26h-4.1875l-1.5312 7.3125h-.0938L11.3364 26H7.02394l2.99996 12zm22.0552.2187c3.3281 0 5.4688-1.5937 5.875-4.0937h-3.9375c-.25.6797-.9609 1.0625-1.8437 1.0625-1.2813 0-2.0313-.8438-2.0313-2V33h7.8125v-1c0-3.8203-2.3437-6.1562-5.9687-6.1562-3.7188 0-6.0938 2.4687-6.0938 6.1875 0 3.8828 2.3438 6.1874 6.1875 6.1874zm-1.9375-7.5937c.0234-1.0391.8828-1.75 1.9375-1.75 1.0703 0 1.8828.7187 1.9063 1.75h-3.8438zM39.0464 38h4.2812v-1.9688h.0938c.5 1.2188 1.6562 2.1251 3.3437 2.1251 2.5625 0 4.7188-2.0001 4.7188-6.1563 0-4.3438-2.3125-6.1562-4.6875-6.1562-1.7813 0-2.9063 1.0312-3.375 2.2499h-.0625V22h-4.3125v16zm4.2187-6c0-1.7813.7188-2.8438 1.9063-2.8438s1.875 1.0625 1.875 2.8438c0 1.7812-.6875 2.8438-1.875 2.8438S43.2651 33.75 43.2651 32z" fill="#fff"/><defs><radialGradient id="paint0_radial" cx="0" cy="0" r="1" gradientUnits="userSpaceOnUse" gradientTransform="matrix(0 60 -89.4998 0 30 0)"><stop stop-color="#FF69E8"/><stop offset="1" stop-color="#A237FF"/></radialGradient><linearGradient id="paint1_linear" x1="7.51324" y1="7" x2="7.51324" y2="51.9735" gradientUnits="userSpaceOnUse"><stop stop-color="#fff"/><stop offset="1" stop-color="#fff" stop-opacity=".3"/></linearGradient></defs></svg>

<svg width="60" height="60" viewBox="0 0 60 60" fill="none" xmlns="http://www.w3.org/2000/svg">
<rect width="60" height="60" rx="19" fill="url(#paint0_radial)"/>
<path opacity="0.5" fill-rule="evenodd" clip-rule="evenodd" d="M46.263 13.7365C37.2811 4.75451 22.7184 4.75451 13.7365 13.7365C4.75451 22.7184 4.75451 37.2811 13.7365 46.263C19.5468 52.0733 28.0155 54.3425 35.9525 52.2158C43.8895 50.0891 50.0891 43.8895 52.2158 35.9525C54.3425 28.0155 52.0733 19.5468 46.263 13.7365ZM31.0988 21.0474C33.6352 20.9921 36.1615 20.7086 38.647 20.2001C39.3697 23.0511 39.7677 25.9747 39.8332 28.9152H31.1182L31.0988 21.0474ZM31.0988 9.3402V18.8493V18.8638C33.4215 18.8057 35.7348 18.5465 38.0128 18.0892C36.4247 13.3637 33.9167 10.0374 31.0988 9.3402ZM28.9007 9.3402V18.8638C26.5783 18.8086 24.265 18.5527 21.9867 18.0988C23.5845 13.3588 26.0828 10.0374 28.9007 9.3402ZM28.9007 28.9007V21.0474C26.3719 20.9859 23.8538 20.6975 21.3767 20.1856C20.65 23.036 20.2504 25.9599 20.1856 28.9007H28.9007ZM17.9633 28.9007H9.22884C9.44834 24.7432 10.9144 20.7481 13.4363 17.4355C15.2678 18.3989 17.2022 19.1525 19.2027 19.6821C18.4402 22.6978 18.0243 25.7907 17.9633 28.9007ZM19.2027 40.298C18.4419 37.2886 18.0261 34.2023 17.9633 31.0988H9.22884C9.44354 35.2647 10.9099 39.2689 13.4363 42.5882C15.2662 41.6105 17.2006 40.8422 19.2027 40.298ZM20.1662 31.0988H28.8813V38.952C26.3449 39.0073 23.8186 39.2909 21.3331 39.7993C20.618 36.9523 20.2266 34.0337 20.1662 31.0988ZM28.9007 50.6593V41.1356C26.578 41.1938 24.2647 41.453 21.9867 41.9103C23.5748 46.6358 26.0828 49.9621 28.9007 50.6593ZM31.0988 50.6447V41.1356C33.4212 41.1908 35.7345 41.4468 38.0128 41.9006C36.415 46.6407 33.9167 49.9621 31.0988 50.6593V50.6447ZM31.0988 31.0988V38.9375V38.952C33.6275 39.0136 36.1457 39.302 38.6228 39.8139C39.3495 36.9635 39.7491 34.0396 39.8139 31.0988H31.0988ZM42.0362 31.0988H50.7513C50.5422 35.2626 49.0827 39.2666 46.5632 42.5882C44.7327 41.6165 42.7983 40.8547 40.7967 40.3174C41.5593 37.3017 41.9752 34.2088 42.0362 31.0988ZM40.8016 19.7014C41.5584 22.7115 41.9725 25.7975 42.0362 28.9007H50.7706C50.5473 24.7499 49.0814 20.7621 46.5632 17.4549C44.7326 18.4166 42.8 19.1702 40.8016 19.7014ZM45.101 15.7167C43.525 16.505 41.8716 17.1281 40.1673 17.5759C39.7686 16.3582 39.2832 15.1705 38.7148 14.0221C38.0334 12.6238 37.1706 11.3215 36.1487 10.1488C39.5611 11.2059 42.644 13.1234 45.101 15.7167ZM21.2847 14.0221C21.9661 12.6238 22.8289 11.3215 23.8508 10.1488C20.4378 11.2078 17.3538 13.1249 14.8936 15.7167C16.4724 16.5026 18.1271 17.1256 19.8322 17.5759C20.2287 16.3574 20.7142 15.1696 21.2847 14.0221ZM14.8985 44.2828C16.4745 43.4944 18.1279 42.8714 19.8322 42.4235C20.2309 43.6413 20.7163 44.8289 21.2847 45.9773C21.9691 47.3762 22.8352 48.6786 23.8605 49.8507C20.4446 48.795 17.3582 46.8775 14.8985 44.2828ZM38.7148 45.9773C38.0334 47.3756 37.1706 48.678 36.1487 49.8507C39.5616 48.7917 42.6457 46.8746 45.1058 44.2828C43.5271 43.4969 41.8724 42.8739 40.1673 42.4235C39.7707 43.6421 39.2853 44.8299 38.7148 45.9773Z" fill="url(#paint1_linear)"/>
<path d="M10.0239 38H14.6802L16.3677 31.5625H16.4927L18.1802 38H22.8364L25.8364 26H21.5239L20.2114 33.25H20.1177L18.5239 26H14.3364L12.8052 33.3125H12.7114L11.3364 26H7.02394L10.0239 38ZM32.0791 38.2187C35.4072 38.2187 37.5479 36.625 37.9541 34.125H34.0166C33.7666 34.8047 33.0557 35.1875 32.1729 35.1875C30.8916 35.1875 30.1416 34.3437 30.1416 33.1875V33H37.9541V32C37.9541 28.1797 35.6104 25.8438 31.9854 25.8438C28.2666 25.8438 25.8916 28.3125 25.8916 32.0313C25.8916 35.9141 28.2354 38.2187 32.0791 38.2187ZM30.1416 30.625C30.165 29.5859 31.0244 28.875 32.0791 28.875C33.1494 28.875 33.9619 29.5937 33.9854 30.625H30.1416ZM39.0464 38H43.3276V36.0312H43.4214C43.9214 37.25 45.0776 38.1563 46.7651 38.1563C49.3276 38.1563 51.4839 36.1562 51.4839 32C51.4839 27.6562 49.1714 25.8438 46.7964 25.8438C45.0151 25.8438 43.8901 26.875 43.4214 28.0937H43.3589V22H39.0464V38ZM43.2651 32C43.2651 30.2187 43.9839 29.1562 45.1714 29.1562C46.3589 29.1562 47.0464 30.2187 47.0464 32C47.0464 33.7812 46.3589 34.8438 45.1714 34.8438C43.9839 34.8438 43.2651 33.75 43.2651 32Z" fill="white"/>
<defs>
<radialGradient id="paint0_radial" cx="0" cy="0" r="1" gradientUnits="userSpaceOnUse" gradientTransform="translate(30) rotate(90) scale(60 89.4998)">
<stop stop-color="#FF69E8"/>
<stop offset="1" stop-color="#A237FF"/>
</radialGradient>
<linearGradient id="paint1_linear" x1="7.51324" y1="7" x2="7.51324" y2="51.9735" gradientUnits="userSpaceOnUse">
<stop stop-color="white"/>
<stop offset="1" stop-color="white" stop-opacity="0.3"/>
</linearGradient>
</defs>
</svg>
